src/assets/icons/sort-alpha-down.svg

<svg width="14" height="14" viewBox="0 0 14 14" fill="none" xmlns="http://www.w3.org/2000/svg">
<g id="sort-alpha-down">
<g clip-path="url(#clip0_156_4674)">
<g id="Vector">
<path d="M5.39197 10.5849L4.29003 11.6868V0.677419C4.29003 0.303484 3.98655 0 3.61261 0C3.23868 0 2.93519 0.303484 2.93519 0.677419V11.6868L1.83326 10.5849C1.56861 10.3203 1.13958 10.3203 0.874937 10.5849C0.610291 10.8495 0.610291 11.2786 0.874937 11.5432L3.133 13.8013C3.19532 13.8636 3.27029 13.9133 3.35248 13.9476C3.43558 13.9819 3.52319 14 3.61171 14C3.70023 14 3.78784 13.9819 3.87094 13.9476C3.95403 13.9133 4.0281 13.8636 4.09042 13.8013L6.34848 11.5432C6.61313 11.2786 6.61313 10.8495 6.34848 10.5849C6.08384 10.3203 5.65661 10.3203 5.39197 10.5849Z" fill="black"/>
<path fill-rule="evenodd" clip-rule="evenodd" d="M8.80436 6.28284C9.15391 6.41019 9.54319 6.22503 9.66965 5.87277L9.92075 5.17187H11.757L12.0081 5.87277C12.1065 6.15006 12.3676 6.32258 12.6458 6.32258C12.7216 6.32258 12.7984 6.30993 12.8734 6.28284C13.2265 6.15638 13.4099 5.76981 13.2835 5.41755L11.738 1.09471C11.5854 0.703613 11.2322 0.451613 10.8393 0.451613C10.4464 0.451613 10.0933 0.703611 9.93339 1.11277L8.39519 5.41755C8.26874 5.7689 8.4521 6.15638 8.80436 6.28284ZM11.2729 3.81613H10.4049L10.8384 2.60219L11.2729 3.81613Z" fill="black"/>
<path d="M12.0686 7.67742C12.4859 7.67742 12.8499 7.9249 13.0197 8.32232C13.1995 8.74142 13.1137 9.22193 12.803 9.54348L10.2604 12.1935H12.42C12.7939 12.1935 13.0974 12.497 13.0974 12.871C13.0974 13.2449 12.7939 13.5484 12.42 13.5484H9.59651C9.18103 13.5484 8.81883 13.3027 8.64993 12.9071C8.47109 12.4907 8.55509 12.0129 8.86309 11.6923L11.4165 9.03226H9.2578C8.88387 9.03226 8.58038 8.72877 8.58038 8.35484C8.58038 7.9809 8.88387 7.67742 9.2578 7.67742H12.0686Z" fill="black"/>
</g>
</g>
</g>
<defs>
<clipPath id="clip0_156_4674">
<rect width="14" height="14" fill="white"/>
</clipPath>
</defs>
</svg>

<svg xmlns="http://www.w3.org/2000/svg" fill="none" viewBox="0 0 14 14"><g fill="#000" clip-path="url(#a)"><path d="M5.392 10.585 4.29 11.687V.677a.678.678 0 0 0-1.355 0v11.01l-1.102-1.102a.678.678 0 0 0-.958.958l2.258 2.258a.68.68 0 0 0 .738.147.7.7 0 0 0 .22-.147l2.257-2.258a.678.678 0 0 0-.956-.958"/><path fill-rule="evenodd" d="M8.804 6.283a.677.677 0 0 0 .866-.41l.25-.701h1.837l.251.7a.677.677 0 1 0 1.276-.454l-1.546-4.323c-.153-.391-.506-.643-.899-.643s-.746.252-.906.66L8.395 5.419a.677.677 0 0 0 .41.865m2.469-2.467h-.868l.433-1.214z" clip-rule="evenodd"/><path d="M12.069 7.677c.417 0 .78.248.95.645.18.42.095.9-.216 1.221l-2.543 2.65h2.16a.678.678 0 0 1 0 1.355H9.597c-.416 0-.778-.245-.947-.64a1.12 1.12 0 0 1 .213-1.216l2.553-2.66H9.259a.678.678 0 0 1 0-1.355z"/></g><defs><clipPath id="a"><path fill="#fff" d="M0 0h14v14H0z"/></clipPath></defs></svg>
